X: 457
T: Bulunmaz Nev-civansın
C: Küçük Mehmed Ağa
O: Turkey
F: http://compmusic.upf.edu/node/140
N: zavil--agirsemai--aksaksemai--bulunmaz_nev-civansin--kucuk_mehmet_aga
N: makam= zavil
N: form= agirsemai
N: usul= aksaksemai = 10/8
M: 10/8
L: 1/16
K: C ^9/8f   
Q: 1/4=108
%%MIDI tuningsystem comma53
g4 a2g2 {a}gfef gaag fag2  | fgfe fef4ef gaag fed2  | 
w:  Ah  bu lun *  *  *  *  *  *  *  maz   |  nev *  *  *  ci *  van *  *  *  *  sın   | 
G4 d2d/^c/d/e/ dc_7/8BA G2=c4_1/4B2  | \
w:  hem de mi  *  *  *  *  *  *  *  *  ağ  | 
d^c_7/8BA GFG3A_1/4B=c AcB4z2  | 
w:  yâr *  *  *  *  *  sın  *  hay *  *  *  fâ    | 
G2G2 GGG2 {A}Geed d^cd4z2  | G2G2 GGG2 {A}Geed d^cd4z2  | 
w:  Ca nım  ye  le  lel  *  le  le  lel  *  lel  *  li    |  Mî rim  te  re  lel  *  le  le  lel  *  lel  *  li    | 
^cdef g2fe d2cd efg2 fed2  | cec2 cBBA A_7/8Bd/^c/d/e/ dcB3/2A/ G2z2  | 
w:  Gel  *  *  *  ca nım  *  *  gel  *  *  *  öm rüm   |  gel  *  *  mî *  rim  *  *  *  a *  *  *  *  *  man    | 
g6ag gfe2 a2ag =fedc  | _1/4B2{c}BA G2A2 {c}_7/8BAd/^c/d/e/ dcB3/2A/ G2z2  | 
w:  A man  *  *  *  a man  hey   |  yâ *  ri *  sin  hay *  *  *  *  *  *  *  *  *  fâ    | 
g4 a2g2 {a}gfef gaag fag2  | fgfe fef4ef gaag fed2  | 
w:  Ah  bu lun *  *  *  *  *  *  *  maz   |  nev *  *  *  ci *  van *  *  *  *  sın   | 
G4 d2d/^c/d/e/ dc_7/8BA G2=c4_1/4B2  | \
w:  hem de mi  *  *  *  *  *  *  *  *  ağ  | 
d^c_7/8BA GFG3A_1/4B=c AcB4z2  | 
w:  yâr *  *  *  *  *  sın  *  hay *  *  *  fâ    | 
G2G2 GGG2 {A}Geed d^cd4z2  | G2G2 GGG2 {A}Geed d^cd4z2  | 
w:  Ca nım  ye  le  lel  *  le  le  lel  *  lel  *  li    |  Mî rim  te  re  lel  *  le  le  lel  *  lel  *  li    | 
^cdef g2fe d2cd efg2 fed2  | cec2 cBBA A_7/8Bd/^c/d/e/ dcB3/2A/ G2z2  | 
w:  Gel  *  *  *  ca nım  *  *  gel  *  *  *  öm rüm   |  gel  *  *  mî *  rim  *  *  *  a *  *  *  *  *  man    | 
g6ag gfe2 a2ag =fedc  | _1/4B2{c}BA G2A2 {c}_7/8BAd/^c/d/e/ dcB3/2A/ G2z2  | 
w:  A man  *  *  *  a man  hey   |  yâ *  ri *  sin  hay *  *  *  *  *  *  *  *  *  fâ    | 
_1/4B4 G2B2 ^ABc/B/c/d/ cBB4z2  | \
w:  Ah  gü zel *  *  *  *  *  *  *  *  sin   | 
_1/4B4 G2Bc BABc Bcd4z2  | 
w:  bî be del *  *  *  *  *  *  *  sin    | 
d4 d2^f_7/8e edd^c/f/ edd4z2  | d4 d2ag g^ff_7/8e edd4z2  | 
w:  Söz  gö tür *  *  *  *  *  *  *  *  mez   |  hüs nün  am *  *  *  ma  *  *  *  kim    | 
G2d2 ddd2 {e}dg=fe d^cd4z2  | G2d2 ddd2 {e}dg=fe d^cd4z2  | 
w:  Ca nım  ye  le  lel  *  *  *  lel  *  lel  *  li    |  Mî rim  te  re  lel  *  le  le  lel  *  lel  *  li    | 
^cdef g2fe d2cd efg2 fed2  | cec2 cBBA A_7/8Bd/^c/d/e/ dcB3/2A/ G2z2  | 
w:  Gel  *  *  *  ca nım  *  *  gel  *  *  *  öm rüm   |  gel  *  *  mî *  rim  *  *  *  a *  *  *  *  *  man    | 
g6ag gfd2 a2ag =fedc  | _1/4B2{c}BA G2A2 {^c}_7/8BAd/c/d/e/ dcB3/2A/ G2z2  | 
w:  A man  *  *  *  câ nân_ ey   |  hüs *  *  *  nün  am *  *  *  ma  *  *  *  *  *  kim    | 
g4 a2g2 {a}gfef gaag fag2  | fgfe fef4ef gaag fed2  | 
w:  Ah  pek  â *  *  *  *  *  *  *  *  hın  *  dil  kat_  |  i  *  *  *  *  *  *  *  hun  | 
G4 d2d/^c/d/e/ dc_7/8BA G2=c4_1/4B2  | \
w:  hem de mi  *  *  *  *  *  *  *  *  ağ  | 
d^c_7/8BA GFG3A_1/4B=c AcB4z2  | 
w:  yâr *  *  *  *  *  sın  *  hay *  *  *  fâ    | 
G2G2 GGG2 {A}Geed d^cd4z2  | G2G2 GGG2 {A}Geed d^cd4z2  | 
w:  Ca nım  ye  le  lel  *  le  le  lel  *  lel  *  li    |  Mî rim  te  re  lel  *  le  le  lel  *  lel  *  li    | 
^cdef g2fe d2cd efg2 fed2  | cec2 cBBA A_7/8Bd/^c/d/e/ dcB3/2A/ G2z2  | 
w:  Gel  *  *  *  ca nım  *  *  gel  *  *  *  öm rüm   |  gel  *  *  mî *  rim  *  *  *  a *  *  *  *  *  man    | 
g6ag gfe2 a2ag =fedc  | _1/4B2{c}BA G2A2 {c}_7/8BAd/^c/d/e/ dcB3/2A/ G2z2  | 
w:  A man  *  *  *  a man  hey   |  yâ *  ri *  sin  hay *  *  *  *  *  *  *  *  *  fâ    | 
|


